;FLAVOR:Marlin
;TIME:4010.59
;Filament used:13.60m
;Layer height:0.2
; HEADER_BLOCK_START
; generated by OrcaSlicer 2.4.2 on 2026-07-19 at 19:09:39
; total layer number: 10
; filament_density: 1.24
; filament_diameter: 1.75
; max_z_height: 2.00
; filament: 1
; HEADER_BLOCK_END

; external perimeters extrusion width = 0.42mm
; perimeters extrusion width = 0.45mm
; infill extrusion width = 0.45mm
; solid infill extrusion width = 0.42mm
; top infill extrusion width = 0.42mm
; first layer extrusion width = 0.46mm

; EXECUTABLE_BLOCK_START
M201 X2500 Y2500 Z500 E5000
M203 X250 Y250 Z5 E40
M204 P2500 R500 T2500 ; sets acceleration (P, T) and retract acceleration (R), mm/sec^2
M205 X10.00 Y10.00 Z0.40 E5.00 ; sets the jerk limits, mm/sec
M205 J0.100
;TYPE:Custom
M220 S100 ;Reset Feedrate 
M221 S100 ;Reset Flowrate 
 
M104 S220 ;Set final nozzle temp 
M190 S55 ;Set and wait for bed temp to stabilize 
G28 ;Home 
G92 E0 ;Reset Extruder 
G1 Z2.0 F3000 ;Move Z Axis up 
G1 X-2.1 Y20 Z0.28 F5000.0 ;Move to start position 
M109 S220 ;Wait for nozzle temp to stabilize 
G1 X-2.1 Y145.0 Z0.28 F1500.0 E15 ;Draw the first line 
G1 X-2.4 Y145.0 Z0.28 F5000.0 ;Move to side a little 
G1 X-2.4 Y20 Z0.28 F1500.0 E30 ;Draw the second line 
G92 E0  ;Reset Extruder 
G1 E-1.0000 F1800 ;Retract a bit 
G1 Z2.0 F3000 ;Move Z Axis up 
G1 E0.0000 F1800
G90
G21
M83 ; use relative distances for extrusion
; filament start gcode
M106 S0
;LAYER_CHANGE
;Z:0.2
;HEIGHT:0.2
;BEFORE_LAYER_CHANGE
;0.2
G92 E0

G1 E-1.2 F2400
;_SET_FAN_SPEED_CHANGING_LAYER
M204 P500
M204 T2500
G1 X184.844 Y170.301 F9000
G1 Z.6
G1 Z.2
G1 E1.2 F1800
;TYPE:Brim
;WIDTH:0.46
G1 F4800
G1 X185.533 Y170.281 E.02342
G1 X186.302 Y170.146 E.02654
G1 X187.043 Y169.899 E.02654
G1 X187.736 Y169.549 E.02637
G1 X188.168 Y169.259 E.0177
G1 X188.571 Y168.928 E.01771
G1 X188.928 Y168.571 E.01718
G1 X189.259 Y168.168 E.01771
G1 X189.549 Y167.736 E.0177
G1 X189.795 Y167.277 E.0177
G1 X189.995 Y166.795 E.01771
G1 X190.112 Y166.382 E.01461
G1 X190.475 Y166.66 E.01553
G1 X191.022 Y167.373 E.03055
G1 X191.366 Y168.204 E.03055
G1 X191.483 Y169.095 E.03055
G1 X191.366 Y169.986 E.03055
G1 X191.022 Y170.817 E.03055
G1 X190.475 Y171.53 E.03055
G1 X189.762 Y172.077 E.03055
G1 X188.931 Y172.421 E.03055
G1 X188.04 Y172.538 E.03055
G1 X187.149 Y172.421 E.03055
G1 X186.318 Y172.077 E.03055
G1 X185.605 Y171.53 E.03055
G1 X185.058 Y170.817 E.03055
G1 X184.86 Y170.338 E.01761
G1 X185.605 Y170.767 F9000
G1 F4800
G1 X185.704 Y170.674 E.0046
G1 X186.442 Y170.539 E.0255
G1 X187.166 Y170.298 E.02594
G1 X187.974 Y169.891 E.03073
G1 X188.438 Y169.577 E.01904
G1 X188.831 Y169.254 E.0173
G1 X189.254 Y168.831 E.02032
G1 X189.609 Y168.396 E.0191
G1 X189.892 Y167.974 E.01726
G1 X190.23 Y167.319 E.02505
G1 X190.317 Y167.253 E.00371
G1 X190.44 Y167.3 E.00448
G1 X190.664 Y167.599 E.01268
G1 X190.953 Y168.297 E.0257
G1 X191.061 Y169.111 E.0279
G1 X190.953 Y169.892 E.0268
G1 X190.664 Y170.591 E.0257
G1 X190.164 Y171.242 E.0279
G1 X189.536 Y171.719 E.0268
G1 X188.838 Y172.008 E.0257
G1 X188.024 Y172.115 E.0279
G1 X187.242 Y172.008 E.0268
G1 X186.544 Y171.719 E.0257
G1 X185.893 Y171.219 E.0279
G1 X185.628 Y170.874 E.0148
G1 X185.614 Y170.806 E.00235
G1 X186.454 Y171.064 F9000
G1 F4800
G1 X186.539 Y170.944 E.00501
G1 X187.362 Y170.666 E.02951
G1 X188.155 Y170.267 E.03017
G1 X188.667 Y169.926 E.02094
G1 X189.092 Y169.579 E.01861
G1 X189.544 Y169.13 E.02168
G1 X189.929 Y168.663 E.02054
G1 X190.247 Y168.19 E.01939
G1 X190.342 Y168.135 E.00371
G1 X190.467 Y168.212 E.00499
G1 X190.549 Y168.423 E.00768
G1 X190.638 Y169.093 E.023
G1 X190.541 Y169.797 E.02415
G1 X190.29 Y170.394 E.022
G1 X189.878 Y170.931 E.023
G1 X189.34 Y171.344 E.02307
G1 X188.712 Y171.604 E.02308
G1 X188.008 Y171.692 E.02412
G1 X187.337 Y171.596 E.02303
G1 X186.769 Y171.361 E.0209
G1 X186.502 Y171.161 E.01133
G1 X186.472 Y171.1 E.00235
G1 X187.587 Y171.055 F9000
G1 F4800
G1 X187.648 Y170.989 E.00304
G1 X188.335 Y170.643 E.02616
G1 X188.936 Y170.245 E.02448
G1 X189.39 Y169.871 E.01998
G1 X189.834 Y169.43 E.0213
G1 X189.958 Y169.284 E.00648
G1 X190.057 Y169.24 E.00371
G1 X190.154 Y169.291 E.00371
G1 X190.177 Y169.382 E.0032
G1 X190.138 Y169.67 E.00986
G1 X189.916 Y170.195 E.01937
G1 X189.567 Y170.643 E.01931
G1 X189.142 Y170.97 E.01822
G1 X188.588 Y171.199 E.02039
G1 X187.995 Y171.269 E.02029
G1 X187.686 Y171.225 E.01061
G1 X187.596 Y171.164 E.00371
G1 X187.591 Y171.095 E.00235
G1 E-.84 F2400
;WIPE_START
G1 F4800
G1 X187.648 Y170.989 E-.04331
G1 X188.335 Y170.643 E-.27709
G1 X188.427 Y170.582 E-.0396
;WIPE_END
G1 F9000
G1 X187.477 Y170.121 Z0.257143
G1 X187.245 Y169.091 Z0.314286
G1 X187.906 Y168.268 Z0.371429
G1 X188.962 Y168.271 Z0.428571
G1 X189.618 Y169.098 Z0.485714
G1 X189.38 Y170.127 Z0.542857
G1 X188.427 Y170.582 Z0.6
G1 X33.613 Y170.119 Z.6
G1 Z.2
G1 E1.2 F1800
G1 F4800
G1 X33.34 Y170.475 E.01524
G1 X32.627 Y171.022 E.03055
G1 X31.796 Y171.366 E.03055
G1 X30.905 Y171.483 E.03055
G1 X30.014 Y171.366 E.03055
G1 X29.183 Y171.022 E.03055
G1 X28.47 Y170.475 E.03055
G1 X27.923 Y169.762 E.03055
G1 X27.579 Y168.931 E.03055
G1 X27.462 Y168.04 E.03055
G1 X27.579 Y167.149 E.03055
G1 X27.923 Y166.318 E.03055
G1 X28.47 Y165.605 E.03055
G1 X29.183 Y165.058 E.03055
G1 X29.691 Y164.848 E.01869
G1 X29.691 Y165 E.00518
G1 X29.751 Y165.792 E.02698
G1 X29.854 Y166.302 E.0177
G1 X30.003 Y166.791 E.01736
G1 X30.101 Y167.043 E.0092
G1 X30.325 Y167.514 E.0177
G1 X30.591 Y167.956 E.01753
G1 X30.888 Y168.358 E.01701
G1 X31.075 Y168.574 E.00973
G1 X31.445 Y168.942 E.0177
G1 X31.844 Y169.268 E.01753
G1 X32.26 Y169.546 E.01701
G1 X32.509 Y169.687 E.00972
G1 X32.962 Y169.901 E.01701
G1 X33.575 Y170.106 E.02199
G1 X32.745 Y170.313 F9000
G1 F4800
G1 X32.7 Y170.44 E.0046
G1 X32.43 Y170.648 E.01157
G1 X31.671 Y170.962 E.0279
G1 X30.921 Y171.061 E.0257
G1 X30.139 Y170.962 E.0268
G1 X29.381 Y170.648 E.0279
G1 X28.781 Y170.187 E.0257
G1 X28.297 Y169.564 E.0268
G1 X27.983 Y168.806 E.0279
G1 X27.885 Y168.056 E.0257
G1 X27.983 Y167.274 E.0268
G1 X28.281 Y166.544 E.0268
G1 X28.758 Y165.916 E.0268
G1 X29.126 Y165.628 E.0159
G1 X29.233 Y165.605 E.00371
G1 X29.327 Y165.717 E.00497
G1 X29.444 Y166.379 E.02283
G1 X29.616 Y166.946 E.02013
G1 X29.726 Y167.226 E.01024
G1 X29.945 Y167.687 E.01736
G1 X30.231 Y168.166 E.01893
G1 X30.551 Y168.603 E.01841
G1 X30.757 Y168.843 E.01076
G1 X31.185 Y169.268 E.02052
G1 X31.576 Y169.588 E.01714
G1 X32.025 Y169.891 E.01841
G1 X32.335 Y170.067 E.01213
G1 X32.677 Y170.228 E.01285
G1 X32.72 Y170.282 E.00235
G1 X31.86 Y170.339 F9000
G1 F4800
G1 X31.783 Y170.464 E.00499
G1 X31.546 Y170.558 E.00865
G1 X30.936 Y170.638 E.0209
G1 X30.231 Y170.549 E.02415
G1 X29.578 Y170.273 E.0241
G1 X29.068 Y169.876 E.02198
G1 X28.672 Y169.366 E.02195
G1 X28.387 Y168.681 E.02522
G1 X28.307 Y168.039 E.02198
G1 X28.388 Y167.397 E.022
G1 X28.64 Y166.767 E.02305
G1 X28.837 Y166.501 E.01128
G1 X28.935 Y166.451 E.00371
G1 X29.057 Y166.54 E.00514
G1 X29.215 Y167.062 E.01853
G1 X29.351 Y167.409 E.01268
G1 X29.59 Y167.906 E.01872
G1 X29.898 Y168.417 E.02029
G1 X30.237 Y168.877 E.01941
G1 X30.466 Y169.143 E.01194
G1 X30.926 Y169.595 E.02191
G1 X31.347 Y169.936 E.01842
G1 X31.805 Y170.245 E.01877
G1 X31.84 Y170.304 E.00235
G1 X30.754 Y170.065 F9000
G1 F4800
G1 X30.697 Y170.158 E.00371
G1 X30.613 Y170.177 E.00291
G1 X30.325 Y170.135 E.00991
G1 X29.778 Y169.9 E.02024
G1 X29.377 Y169.589 E.01723
G1 X29.046 Y169.168 E.01821
G1 X28.801 Y168.589 E.02138
G1 X28.729 Y168.055 E.0183
G1 X28.771 Y167.696 E.01228
G1 X28.83 Y167.605 E.00371
G1 X28.939 Y167.595 E.00371
G1 X29.008 Y167.657 E.00317
G1 X29.212 Y168.081 E.01598
G1 X29.537 Y168.627 E.02161
G1 X29.924 Y169.153 E.02217
G1 X30.177 Y169.443 E.01307
G1 X30.716 Y169.962 E.02545
G1 X30.74 Y170.027 E.00235
G1 E-.84 F2400
;WIPE_START
G1 F4800
G1 X30.697 Y170.158 E-.04949
G1 X30.613 Y170.177 E-.03079
G1 X30.325 Y170.135 E-.10495
G1 X29.879 Y169.944 E-.17478
;WIPE_END
G1 F9000
G1 X30.337 Y168.992 Z0.257143
G1 X31.3665 Y168.757 Z0.314286
G1 X32.1922 Y169.416 Z0.371429
G1 X32.1922 Y170.472 Z0.428571
G1 X31.3665 Y171.13 Z0.485714
G1 X30.3369 Y170.895 Z0.542857
G1 X29.8788 Y169.944 Z0.6
G1 X29.881 Y53.613 Z.6
G1 Z.2
G1 E1.2 F1800
G1 F4800
G1 X29.525 Y53.34 E.01524
G1 X28.978 Y52.627 E.03055
G1 X28.634 Y51.796 E.03055
G1 X28.517 Y50.905 E.03055
G1 X28.634 Y50.014 E.03055
G1 X28.978 Y49.183 E.03055
G1 X29.525 Y48.47 E.03055
G1 X30.238 Y47.923 E.03055
G1 X31.069 Y47.579 E.03055
G1 X31.96 Y47.462 E.03055
G1 X32.851 Y47.579 E.03055
G1 X33.682 Y47.923 E.03055
G1 X34.395 Y48.47 E.03055
G1 X34.942 Y49.183 E.03055
G1 X35.156 Y49.699 E.01898
G1 X34.467 Y49.719 E.02341
G1 X33.957 Y49.795 E.01753
G1 X33.452 Y49.923 E.01771
G1 X32.962 Y50.099 E.0177
G1 X32.509 Y50.313 E.01701
G1 X32.061 Y50.579 E.01771
G1 X31.84 Y50.735 E.0092
G1 X31.445 Y51.058 E.01736
G1 X31.075 Y51.426 E.0177
G1 X30.888 Y51.642 E.00973
G1 X30.591 Y52.044 E.01701
G1 X30.325 Y52.486 E.01753
G1 X30.101 Y52.957 E.0177
G1 X29.894 Y53.575 E.02216
G1 X29.686 Y52.746 F9000
G1 F4800
G1 X29.56 Y52.7 E.00457
G1 X29.336 Y52.401 E.01267
G1 X29.047 Y51.703 E.0257
G1 X28.939 Y50.921 E.0268
G1 X29.047 Y50.108 E.0279
G1 X29.352 Y49.381 E.0268
G1 X29.836 Y48.758 E.0268
G1 X30.464 Y48.281 E.0268
G1 X31.194 Y47.983 E.0268
G1 X31.944 Y47.885 E.0257
G1 X32.726 Y47.983 E.0268
G1 X33.484 Y48.297 E.0279
G1 X34.107 Y48.781 E.0268
G1 X34.37 Y49.124 E.01468
G1 X34.392 Y49.23 E.00371
G1 X34.29 Y49.323 E.00469
G1 X33.849 Y49.392 E.01517
G1 X33.356 Y49.517 E.01731
G1 X32.826 Y49.704 E.0191
G1 X32.29 Y49.957 E.02013
G1 X31.852 Y50.219 E.01735
G1 X31.604 Y50.391 E.01024
G1 X31.146 Y50.767 E.02014
G1 X30.784 Y51.127 E.01735
G1 X30.576 Y51.367 E.0108
G1 X30.23 Y51.834 E.01976
G1 X29.97 Y52.266 E.01714
G1 X29.772 Y52.678 E.01553
G1 X29.717 Y52.721 E.00235
G1 X29.666 Y51.869 F9000
G1 F4800
G1 X29.535 Y51.793 E.00514
G1 X29.45 Y51.577 E.0079
G1 X29.363 Y50.937 E.02195
G1 X29.451 Y50.234 E.02407
G1 X29.709 Y49.608 E.02302
G1 X30.121 Y49.07 E.02305
G1 X30.659 Y48.657 E.02305
G1 X31.287 Y48.396 E.0231
G1 X31.929 Y48.307 E.02203
G1 X32.601 Y48.388 E.02303
G1 X33.257 Y48.655 E.02407
G1 X33.504 Y48.841 E.01049
G1 X33.552 Y48.938 E.00371
G1 X33.459 Y49.06 E.00523
G1 X33.212 Y49.125 E.0087
G1 X32.643 Y49.33 E.02055
G1 X32.072 Y49.602 E.0215
G1 X31.642 Y49.858 E.01702
G1 X31.37 Y50.045 E.0112
G1 X30.886 Y50.441 E.02126
G1 X30.467 Y50.856 E.02004
G1 X30.237 Y51.123 E.01196
G1 X29.898 Y51.582 E.01942
G1 X29.758 Y51.811 E.0091
G1 X29.7 Y51.848 E.00235
G1 X29.935 Y50.753 F9000
G1 F4800
G1 X29.842 Y50.695 E.00371
G1 X29.824 Y50.613 E.00288
G1 X29.855 Y50.358 E.00871
G1 X30.067 Y49.833 E.01924
G1 X30.432 Y49.357 E.0204
G1 X30.885 Y49.014 E.0193
G1 X31.382 Y48.808 E.0183
G1 X31.917 Y48.73 E.01835
G1 X32.306 Y48.773 E.0133
G1 X32.397 Y48.831 E.00371
G1 X32.408 Y48.94 E.00371
G1 X32.345 Y49.009 E.00319
G1 X31.853 Y49.247 E.01855
G1 X31.431 Y49.498 E.0167
G1 X31.138 Y49.699 E.01209
G1 X30.589 Y50.148 E.02411
G1 X30.037 Y50.715 E.02688
G1 X29.973 Y50.739 E.00235
; printing object Object_1 id:94320848978720 copy 0
G1 E-.84 F2400
;WIPE_START
G1 F4800
G1 X29.842 Y50.695 E-.04949
G1 X29.824 Y50.613 E-.03054
G1 X29.855 Y50.358 E-.09227
G1 X30.051 Y49.875 E-.1877
;WIPE_END
G1 F9000
G1 X30.9894 Y50.3585 Z0.257143
G1 X31.1966 Y51.394 Z0.314286
G1 X30.5162 Y52.2016 Z0.371429
G1 X29.4606 Y52.1733 Z0.428571
G1 X28.8246 Y51.3302 Z0.485714
G1 X29.0872 Y50.3073 Z0.542857
G1 X30.0506 Y49.8749 Z0.6
G1 X189.245 Y54.155 Z.6
G1 Z.2
G1 E1.2 F1800
;TYPE:Inner wall
;WIDTH:0.459999
G1 X189.331 Y55.231 E.03666
G1 X189.331 Y164.976 E3.72989
G1 X189.283 Y165.635 E.02245
G1 X189.145 Y166.249 E.02137
G1 X188.817 Y167.04 E.02912
G1 X188.341 Y167.753 E.02912
G1 X187.908 Y168.208 E.02137
G1 X187.412 Y168.595 E.02137
G1 X186.649 Y169.003 E.02939
G1 X186.06 Y169.197 E.02111
G1 X185.189 Y169.327 E.02992
G1 X35.024 Y169.331 E5.10362
G1 X34.365 Y169.283 E.02245
G1 X33.751 Y169.145 E.02137
G1 X32.96 Y168.817 E.02912
G1 X32.247 Y168.341 E.02912
G1 X31.792 Y167.908 E.02137
G1 X31.405 Y167.412 E.02137
G1 X30.997 Y166.649 E.02939
G1 X30.803 Y166.06 E.02111
G1 X30.673 Y165.189 E.02992
G1 X30.669 Y55.024 E3.74415
G1 X30.717 Y54.365 E.02245
G1 X30.855 Y53.751 E.02137
G1 X31.183 Y52.96 E.02912
G1 X31.659 Y52.247 E.02912
G1 X32.092 Y51.792 E.02137
G1 X32.588 Y51.405 E.02137
G1 X33.351 Y50.997 E.02939
G1 X33.94 Y50.803 E.02111
G1 X34.811 Y50.673 E.02992
G1 X185.194 Y50.674 E5.111
G1 X185.837 Y50.753 E.02205
G1 X186.656 Y51.001 E.02909
G1 X187.405 Y51.401 E.02884
G1 X188.061 Y51.939 E.02884
G1 X188.599 Y52.595 E.02884
G1 X188.999 Y53.344 E.02884
G1 X189.234 Y54.117 E.02747
G1 X189.681 Y54.117 F9000
;TYPE:Outer wall
G1 F1800
G1 X189.77 Y55.231 E.03797
G1 X189.77 Y164.993 E3.73044
G1 X189.718 Y165.7 E.0241
G1 X189.565 Y166.382 E.02375
G1 X189.206 Y167.248 E.03187
G1 X188.685 Y168.028 E.03187
G1 X188.203 Y168.534 E.02375
G1 X187.652 Y168.964 E.02375
G1 X186.823 Y169.407 E.03195
G1 X186.162 Y169.626 E.02367
G1 X185.035 Y169.769 E.03859
G1 X35.007 Y169.77 E5.09895
G1 X34.3 Y169.718 E.0241
G1 X33.618 Y169.565 E.02375
G1 X32.752 Y169.206 E.03187
G1 X31.972 Y168.685 E.03187
G1 X31.466 Y168.203 E.02376
G1 X31.036 Y167.652 E.02375
G1 X30.593 Y166.823 E.03195
G1 X30.374 Y166.162 E.02367
G1 X30.231 Y165.035 E.03859
G1 X30.23 Y55.007 E3.73948
G1 X30.282 Y54.3 E.0241
G1 X30.435 Y53.618 E.02375
G1 X30.794 Y52.752 E.03187
G1 X31.315 Y51.972 E.03187
G1 X31.797 Y51.466 E.02375
G1 X32.348 Y51.036 E.02375
G1 X33.177 Y50.593 E.03195
G1 X33.838 Y50.374 E.02367
G1 X34.965 Y50.231 E.03859
G1 X185.22 Y50.236 E5.10668
G1 X185.928 Y50.322 E.02424
G1 X186.825 Y50.594 E.03185
G1 X187.65 Y51.035 E.03178
G1 X188.372 Y51.628 E.03177
G1 X188.965 Y52.35 E.03177
G1 X189.406 Y53.175 E.03178
G1 X189.677 Y54.07 E.03177
G1 X189.678 Y54.077 E.00026
G1 E-.84 F2400
;WIPE_START
G1 F1800
G1 X189.758 Y55.074 E-.36
;WIPE_END
G1 F9000
G1 X188.749 Y55.3879 Z0.257143
G1 X187.875 Y54.7952 Z0.314286
G1 X187.794 Y53.7423 Z0.371429
G1 X188.566 Y53.022 Z0.428571
G1 X189.61 Y53.1768 Z0.485714
G1 X190.141 Y54.09 Z0.542857
G1 X189.758 Y55.074 Z0.6
G1 X182.21 Y62.113 Z.6
G1 Z.2
G1 E1.2 F1800
;TYPE:Inner wall
G1 X182.29 Y62.039 E.00368
G1 X182.648 Y61.545 E.02075
G1 X182.902 Y60.99 E.02075
G1 X183.04 Y60.404 E.02046
G1 X183.063 Y59.88 E.01783
G1 X182.979 Y59.276 E.02073
G1 X182.776 Y58.7 E.02075
G1 X182.471 Y58.185 E.02034
G1 X182.137 Y57.802 E.01729
G1 X181.659 Y57.422 E.02074
G1 X181.115 Y57.144 E.02075
G1 X180.527 Y56.98 E.02075
G1 X179.93 Y56.935 E.02037
G1 X179.406 Y56.992 E.0179
G1 X178.822 Y57.169 E.02075
G1 X178.284 Y57.459 E.02075
G1 X177.815 Y57.849 E.02075
G1 X177.432 Y58.324 E.02075
G1 X177.151 Y58.867 E.02075
G1 X176.983 Y59.454 E.02075
G1 X176.934 Y60.062 E.02075
G1 X177.007 Y60.668 E.02075
G1 X177.199 Y61.248 E.02075
G1 X177.502 Y61.778 E.02075
G1 X177.904 Y62.238 E.02075
G1 X178.389 Y62.609 E.02075
G1 X178.938 Y62.877 E.02075
G1 X179.529 Y63.03 E.02075
G1 X180.139 Y63.063 E.02075
G1 X180.743 Y62.975 E.02075
G1 X181.318 Y62.769 E.02075
G1 X181.84 Y62.453 E.02075
G1 X182.181 Y62.14 E.01571
G1 X182.017 Y61.669 F9000
;TYPE:Outer wall
G1 F1800
G1 X182.234 Y61.387 E.01208
G1 X182.464 Y60.917 E.0178
G1 X182.597 Y60.411 E.01778
G1 X182.629 Y59.966 E.01515
G1 X182.57 Y59.449 E.01767
G1 X182.41 Y58.951 E.01779
G1 X182.155 Y58.494 E.01778
G1 X181.881 Y58.163 E.01461
G1 X181.483 Y57.829 E.01766
G1 X181.023 Y57.579 E.01779
G1 X180.523 Y57.424 E.01779
G1 X180.003 Y57.371 E.01778
G1 X179.559 Y57.408 E.01513
G1 X179.057 Y57.546 E.0177
G1 X178.589 Y57.781 E.0178
G1 X178.177 Y58.105 E.0178
G1 X177.838 Y58.503 E.01779
G1 X177.584 Y58.962 E.0178
G1 X177.427 Y59.461 E.0178
G1 X177.37 Y60.001 E.01846
G1 X177.424 Y60.528 E.01801
G1 X177.57 Y61.004 E.01692
G1 X177.817 Y61.466 E.0178
G1 X178.151 Y61.869 E.01779
G1 X178.558 Y62.199 E.01779
G1 X179.022 Y62.441 E.0178
G1 X179.525 Y62.586 E.0178
G1 X180.047 Y62.629 E.01779
G1 X180.567 Y62.568 E.0178
G1 X181.064 Y62.404 E.01779
G1 X181.52 Y62.146 E.0178
G1 X181.915 Y61.802 E.01779
G1 X181.993 Y61.7 E.00435
G1 E-.84 F2400
;WIPE_START
G1 F1800
G1 X182.234 Y61.387 E-.14237
G1 X182.464 Y60.917 E-.18851
